EvoPop/48x48/categories/preferences-system.svg

<?xml version="1.0" encoding="UTF-8" standalone="no"?>
<svg
   xmlns:dc="http://purl.org/dc/elements/1.1/"
   xmlns:cc="http://creativecommons.org/ns#"
   xmlns:rdf="http://www.w3.org/1999/02/22-rdf-syntax-ns#"
   xmlns:svg="http://www.w3.org/2000/svg"
   xmlns="http://www.w3.org/2000/svg"
   xmlns:xlink="http://www.w3.org/1999/xlink"
   xmlns:sodipodi="http://sodipodi.sourceforge.net/DTD/sodipodi-0.dtd"
   xmlns:inkscape="http://www.inkscape.org/namespaces/inkscape"
   width="48"
   height="48"
   viewBox="0 0 48 48"
   id="svg2"
   version="1.1"
   inkscape:version="0.91 r13725"
   sodipodi:docname="preferences-system.svg">
  <metadata
     id="metadata12">
    <rdf:RDF>
      <cc:Work
         rdf:about="">
        <dc:format>image/svg+xml</dc:format>
        <dc:type
           rdf:resource="http://purl.org/dc/dcmitype/StillImage" />
        <dc:title />
      </cc:Work>
    </rdf:RDF>
  </metadata>
  <defs
     id="defs10">
    <linearGradient
       inkscape:collect="always"
       id="linearGradient4165">
      <stop
         style="stop-color:#ffffff;stop-opacity:0.15000001"
         offset="0"
         id="stop4167" />
      <stop
         style="stop-color:#177ed5;stop-opacity:0;"
         offset="1"
         id="stop4169" />
    </linearGradient>
    <linearGradient
       inkscape:collect="always"
       xlink:href="#linearGradient4165"
       id="linearGradient4171-1-9"
       x1="-9.7333364"
       y1="991.56146"
       x2="57.733345"
       y2="1059.0287"
       gradientUnits="userSpaceOnUse"
       gradientTransform="matrix(0.65217379,0,0,0.65216874,8.3478267,-644.6654)" />
  </defs>
  <sodipodi:namedview
     pagecolor="#6d6d6d"
     bordercolor="#666666"
     borderopacity="1"
     objecttolerance="10"
     gridtolerance="10"
     guidetolerance="10"
     inkscape:pageopacity="0"
     inkscape:pageshadow="2"
     inkscape:window-width="959"
     inkscape:window-height="1008"
     id="namedview8"
     showgrid="true"
     inkscape:zoom="6.9532166"
     inkscape:cx="21.073083"
     inkscape:cy="28.564333"
     inkscape:window-x="960"
     inkscape:window-y="0"
     inkscape:window-maximized="0"
     inkscape:current-layer="svg2">
    <inkscape:grid
       type="xygrid"
       id="grid4145" />
  </sodipodi:namedview>
  <ellipse
     style="fill:#455a64;fill-opacity:1;stroke:none;stroke-width:2;stroke-linecap:round;stroke-linejoin:round;stroke-miterlimit:4;stroke-dasharray:none;stroke-opacity:1"
     id="path4136"
     cx="24.00005"
     cy="24.000069"
     rx="9.9999447"
     ry="9.9999208" />
  <path
     style="fill:#ffffff;fill-opacity:0.2;stroke:none;stroke-width:2;stroke-linecap:round;stroke-linejoin:round;stroke-miterlimit:4;stroke-dasharray:none;stroke-opacity:1"
     d="m 23.999942,14.00015 a 9.9999446,9.999921 0 0 0 -9.999944,9.999924 9.9999446,9.999921 0 0 0 0.0045,0.1332 9.9999446,9.999921 0 0 1 9.995494,-9.905826 9.9999446,9.999921 0 0 1 9.995506,9.866726 9.9999446,9.999921 0 0 0 0.0044,-0.0941 9.9999446,9.999921 0 0 0 -9.999946,-9.999926 z"
     id="circle4149"
     inkscape:connector-curvature="0" />
  <path
     inkscape:connector-curvature="0"
     id="path4155"
     d="m 23.999942,34 a 9.9999446,9.999921 0 0 1 -9.999944,-9.999926 9.9999446,9.999921 0 0 1 0.0045,-0.1332 9.9999446,9.999921 0 0 0 9.995504,9.905876 9.9999446,9.999921 0 0 0 9.995506,-9.866776 9.9999446,9.999921 0 0 1 0.0044,0.0941 A 9.9999446,9.999921 0 0 1 23.999912,34 Z"
     style="fill:#000000;fill-opacity:0.2;stroke:none;stroke-width:2;stroke-linecap:round;stroke-linejoin:round;stroke-miterlimit:4;stroke-dasharray:none;stroke-opacity:1" />
  <path
     style="fill:#78909c;fill-opacity:1"
     d="M 19.472526,2 C 18.907227,2 18.443805,2.406824 18.353357,2.923828 L 17.57599,8.271484 a 17.000472,17 0 0 0 -4.246211,2.511718 L 8.0522884,8.710938 C 7.5435189,8.523906 6.955994,8.710594 6.6733439,9.183594 L 2.151734,16.80664 c -0.28265,0.473 -0.158132,1.067206 0.2714919,1.408204 l 4.7364595,3.615234 A 17.000472,17 0 0 0 6.9995248,24 17.000472,17 0 0 0 7.1557792,26.171874 l -4.7325533,3.613282 c -0.4296275,0.33 -0.5541447,0.924204 -0.2714919,1.408202 l 4.5216099,7.623048 c 0.2826497,0.473 0.870175,0.670658 1.3789445,0.472656 L 13.323919,37.21875 a 17.000472,17 0 0 0 4.252071,2.507812 l 0.777367,5.34961 C 18.443805,45.593172 18.907227,46 19.472526,46 l 9.045175,0 c 0.565296,0 1.028723,-0.406828 1.119171,-0.923828 l 0.777364,-5.34375 a 17.000472,17 0 0 0 4.252073,-2.513672 l 5.269677,2.070312 c 0.508772,0.18698 1.096294,3.44e-4 1.378944,-0.472656 l 4.523563,-7.623048 c 0.28265,-0.473 0.1581,-1.067202 -0.271492,-1.408202 L 40.838354,26.177734 A 17.000472,17 0 0 0 41.000468,24 a 17.000472,17 0 0 0 -0.1582,-2.181642 l 4.734507,-3.603514 c 0.429628,-0.329998 0.554142,-0.924204 0.271492,-1.408204 L 41.32665,9.183594 C 41.044,8.710594 40.456476,8.512938 39.947704,8.710938 L 34.676073,10.78125 A 17.000472,17 0 0 0 30.424002,8.273438 L 29.646638,2.923828 C 29.544892,2.406824 29.082999,2 28.517701,2 l -9.045175,0 z m 4.527472,14 a 8.000222,8 0 0 1 8.00022,8 8.000222,8 0 0 1 -8.00022,8 8.000222,8 0 0 1 -8.000224,-8 8.000222,8 0 0 1 0.03906,-0.798828 A 8.000222,8 0 0 1 23.999998,16 Z"
     id="path6"
     inkscape:connector-curvature="0" />
  <path
     style="fill:#ffffff;fill-opacity:0.2"
     d="M 19.472656 2 C 18.907357 2 18.443964 2.4068241 18.353516 2.9238281 L 17.576172 8.2714844 A 17.000472 17 0 0 0 13.330078 10.783203 L 8.0527344 8.7109375 C 7.5439649 8.5239055 6.9564782 8.7105938 6.6738281 9.1835938 L 2.1523438 16.806641 C 1.9531008 17.140063 1.9651153 17.530784 2.1347656 17.853516 C 2.1428857 17.838342 2.1434141 17.821584 2.1523438 17.806641 L 6.6738281 10.183594 C 6.9564782 9.7105938 7.5439649 9.5239055 8.0527344 9.7109375 L 13.330078 11.783203 A 17.000472 17 0 0 1 17.576172 9.2714844 L 18.353516 3.9238281 C 18.443964 3.4068241 18.907357 3 19.472656 3 L 28.517578 3 C 29.082876 3 29.544738 3.4068241 29.646484 3.9238281 L 30.423828 9.2734375 A 17.000472 17 0 0 1 34.675781 11.78125 L 39.947266 9.7109375 C 40.456038 9.5129375 41.043522 9.7105938 41.326172 10.183594 L 45.847656 17.806641 C 45.857227 17.82303 45.858546 17.840795 45.867188 17.857422 C 46.035505 17.538313 46.04637 17.146911 45.847656 16.806641 L 41.326172 9.1835938 C 41.043522 8.7105938 40.456038 8.5129375 39.947266 8.7109375 L 34.675781 10.78125 A 17.000472 17 0 0 0 30.423828 8.2734375 L 29.646484 2.9238281 C 29.544738 2.4068241 29.082876 2 28.517578 2 L 19.472656 2 z M 40.927734 22.751953 L 40.841797 22.818359 A 17.000472 17 0 0 1 40.976562 24.607422 A 17.000472 17 0 0 0 41 24 A 17.000472 17 0 0 0 40.927734 22.751953 z M 7.078125 22.767578 A 17.000472 17 0 0 0 7 24 A 17.000472 17 0 0 0 7.0234375 24.396484 A 17.000472 17 0 0 1 7.1601562 22.830078 L 7.078125 22.767578 z M 31.978516 24.423828 A 8.000222 8 0 0 1 24 32 A 8.000222 8 0 0 1 16.021484 24.576172 A 8.000222 8 0 0 0 16 25 A 8.000222 8 0 0 0 24 33 A 8.000222 8 0 0 0 32 25 A 8.000222 8 0 0 0 31.978516 24.423828 z M 7.0703125 26.236328 L 2.4238281 29.785156 C 2.0087484 30.103982 1.8862587 30.668173 2.1328125 31.142578 C 2.2039096 31.007788 2.2962453 30.883154 2.4238281 30.785156 L 7.15625 27.171875 A 17.000472 17 0 0 1 7.0703125 26.236328 z M 40.921875 26.240234 A 17.000472 17 0 0 1 40.837891 27.177734 L 45.566406 30.785156 C 45.693174 30.885782 45.78445 31.011383 45.855469 31.146484 C 46.104372 30.681373 45.982426 30.115383 45.566406 29.785156 L 40.921875 26.240234 z "
     id="path4146" />
  <path
     style="fill:#000000;fill-opacity:0.19607843"
     d="M 24,15 A 8.000222,8 0 0 0 16.039062,22.201172 8.000222,8 0 0 0 16,23 a 8.000222,8 0 0 0 0.02148,0.576172 8.000222,8 0 0 1 0.01758,-0.375 A 8.000222,8 0 0 1 24,16 8.000222,8 0 0 1 31.978516,23.423828 8.000222,8 0 0 0 32,23 8.000222,8 0 0 0 24,15 Z M 2.1347656,16.853516 c -0.2489048,0.465111 -0.1269885,1.031103 0.2890625,1.361328 l 4.6542969,3.552734 a 17.000472,17 0 0 1 0.082031,-0.9375 L 2.4238281,17.214844 C 2.2970506,17.114219 2.2057847,16.988617 2.1347656,16.853516 Z m 43.7324224,0.0039 c -0.0711,0.13479 -0.163433,0.259425 -0.291016,0.357422 l -4.734375,3.603515 a 17.000472,17 0 0 1 0.08594,0.933594 l 4.648438,-3.537109 c 0.41508,-0.318824 0.537567,-0.883015 0.291016,-1.357422 z M 7.0234375,23.396484 A 17.000472,17 0 0 0 7,24 17.000472,17 0 0 0 7.0703125,25.236328 L 7.15625,25.171875 A 17.000472,17 0 0 1 7.0234375,23.396484 Z m 33.9531245,0.210938 a 17.000472,17 0 0 1 -0.138671,1.570312 l 0.08398,0.0625 A 17.000472,17 0 0 0 41,24 17.000472,17 0 0 0 40.976562,23.607422 Z M 2.1328125,30.142578 c -0.1683181,0.319109 -0.1791846,0.710512 0.019531,1.050781 l 4.5214843,7.623047 c 0.2826497,0.473 0.8701368,0.670659 1.3789063,0.472656 L 13.324219,37.21875 a 17.000472,17 0 0 0 4.251953,2.507812 l 0.777344,5.34961 C 18.443964,45.593172 18.907357,46 19.472656,46 l 9.044922,0 c 0.565296,0 1.028693,-0.406828 1.119141,-0.923828 l 0.777343,-5.34375 a 17.000472,17 0 0 0 4.251954,-2.513672 l 5.269531,2.070312 c 0.508772,0.18698 1.096256,3.44e-4 1.378906,-0.472656 l 4.523438,-7.623047 c 0.199243,-0.333422 0.187226,-0.724144 0.01758,-1.046875 -0.0081,0.01517 -0.0086,0.03193 -0.01758,0.04687 l -4.523438,7.623047 c -0.28265,0.473 -0.870134,0.659636 -1.378906,0.472656 L 34.666016,36.21875 a 17.000472,17 0 0 1 -4.251954,2.513672 l -0.777343,5.34375 C 29.546271,44.593172 29.082874,45 28.517578,45 l -9.044922,0 c -0.565299,0 -1.028692,-0.406828 -1.11914,-0.923828 l -0.777344,-5.34961 A 17.000472,17 0 0 1 13.324219,36.21875 L 8.0527344,38.289062 C 7.5439649,38.487065 6.9564778,38.289406 6.6738281,37.816406 L 2.1523438,30.193359 c -0.00957,-0.01639 -0.01089,-0.03415 -0.019531,-0.05078 z"
     id="path4151"
     inkscape:connector-curvature="0" />
  <circle
     r="9"
     cy="24"
     cx="24"
     id="circle4153"
     style="opacity:1;fill:#f5f5f5;fill-opacity:1;stroke:none;stroke-width:1.5;stroke-linecap:round;stroke-linejoin:round;stroke-miterlimit:4;stroke-dasharray:none;stroke-opacity:1" />
  <path
     style="opacity:1;fill:#ffffff;fill-opacity:0.2;stroke:none;stroke-width:1.5;stroke-linecap:round;stroke-linejoin:round;stroke-miterlimit:4;stroke-dasharray:none;stroke-opacity:1"
     d="M 24 15 A 9 9 0 0 0 15 24 A 9 9 0 0 0 15.021484 24.576172 A 9 9 0 0 1 24 16 A 9 9 0 0 1 32.978516 24.423828 A 9 9 0 0 0 33 24 A 9 9 0 0 0 24 15 z "
     id="path4147" />
  <path
     id="path4156"
     d="M 24,33 A 9,9 0 0 1 15,24 9,9 0 0 1 15.021484,23.423828 9,9 0 0 0 24,32 9,9 0 0 0 32.978516,23.576172 9,9 0 0 1 33,24 9,9 0 0 1 24,33 Z"
     style="opacity:1;fill:#000000;fill-opacity:0.2;stroke:none;stroke-width:1.5;stroke-linecap:round;stroke-linejoin:round;stroke-miterlimit:4;stroke-dasharray:none;stroke-opacity:1"
     inkscape:connector-curvature="0" />
  <path
     style="fill:url(#linearGradient4171-1-9);fill-opacity:1;stroke:none;stroke-width:2;stroke-linecap:round;stroke-linejoin:round;stroke-miterlimit:4;stroke-dasharray:none;stroke-opacity:1"
     d="M 19.472656 2 C 18.907357 2 18.443964 2.4068241 18.353516 2.9238281 L 17.576172 8.2714844 A 17.000472 17 0 0 0 13.330078 10.783203 L 8.0527344 8.7109375 C 7.5439651 8.5238975 6.9564782 8.7105938 6.6738281 9.1835938 L 2.1523438 16.806641 C 1.8696937 17.279641 1.9942038 17.873846 2.4238281 18.214844 L 7.1601562 21.830078 A 17.000472 17 0 0 0 7 24 A 17.000472 17 0 0 0 7.15625 26.171875 L 2.4238281 29.785156 C 1.9942006 30.115156 1.869691 30.709361 2.1523438 31.193359 L 6.6738281 38.816406 C 6.9564778 39.289406 7.5439651 39.487065 8.0527344 39.289062 L 13.324219 37.21875 A 17.000472 17 0 0 0 17.576172 39.726562 L 18.353516 45.076172 C 18.443964 45.593172 18.907357 46 19.472656 46 L 28.517578 46 C 29.082876 46 29.546271 45.593172 29.636719 45.076172 L 30.414062 39.732422 A 17.000472 17 0 0 0 34.666016 37.21875 L 39.935547 39.289062 C 40.444319 39.476042 41.031803 39.289406 41.314453 38.816406 L 45.837891 31.193359 C 46.120541 30.720359 45.996012 30.126156 45.566406 29.785156 L 40.837891 26.177734 A 17.000472 17 0 0 0 41 24 A 17.000472 17 0 0 0 40.841797 21.818359 L 45.576172 18.214844 C 46.0058 17.884846 46.130306 17.290641 45.847656 16.806641 L 41.326172 9.1835938 C 41.043522 8.7105938 40.456038 8.5129375 39.947266 8.7109375 L 34.675781 10.78125 A 17.000472 17 0 0 0 30.423828 8.2734375 L 29.646484 2.9238281 C 29.544738 2.4068241 29.082876 2 28.517578 2 L 19.472656 2 z "
     id="circle4163-3-7" />
</svg>

<?xml version="1.0" encoding="UTF-8" standalone="no"?>
<svg
   xmlns:dc="http://purl.org/dc/elements/1.1/"
   xmlns:cc="http://creativecommons.org/ns#"
   xmlns:rdf="http://www.w3.org/1999/02/22-rdf-syntax-ns#"
   xmlns:svg="http://www.w3.org/2000/svg"
   xmlns="http://www.w3.org/2000/svg"
   xmlns:xlink="http://www.w3.org/1999/xlink"
   xmlns:sodipodi="http://sodipodi.sourceforge.net/DTD/sodipodi-0.dtd"
   xmlns:inkscape="http://www.inkscape.org/namespaces/inkscape"
   width="48"
   height="48"
   viewBox="0 0 48 48"
   id="svg2"
   version="1.1"
   inkscape:version="0.91 r13725"
   sodipodi:docname="preferences-system.svg">
  <metadata
     id="metadata12">
    <rdf:RDF>
      <cc:Work
         rdf:about="">
        <dc:format>image/svg+xml</dc:format>
        <dc:type
           rdf:resource="http://purl.org/dc/dcmitype/StillImage" />
        <dc:title />
      </cc:Work>
    </rdf:RDF>
  </metadata>
  <defs
     id="defs10">
    <linearGradient
       inkscape:collect="always"
       id="linearGradient4165">
      <stop
         style="stop-color:#ffffff;stop-opacity:0.15000001"
         offset="0"
         id="stop4167" />
      <stop
         style="stop-color:#177ed5;stop-opacity:0;"
         offset="1"
         id="stop4169" />
    </linearGradient>
    <linearGradient
       inkscape:collect="always"
       xlink:href="#linearGradient4165"
       id="linearGradient4171-1-9"
       x1="-9.7333364"
       y1="991.56146"
       x2="57.733345"
       y2="1059.0287"
       gradientUnits="userSpaceOnUse"
       gradientTransform="matrix(0.65217379,0,0,0.65216874,8.3478267,-644.6654)" />
  </defs>
  <sodipodi:namedview
     pagecolor="#6d6d6d"
     bordercolor="#666666"
     borderopacity="1"
     objecttolerance="10"
     gridtolerance="10"
     guidetolerance="10"
     inkscape:pageopacity="0"
     inkscape:pageshadow="2"
     inkscape:window-width="959"
     inkscape:window-height="1008"
     id="namedview8"
     showgrid="true"
     inkscape:zoom="6.9532166"
     inkscape:cx="-8.0501288"
     inkscape:cy="28.564333"
     inkscape:window-x="960"
     inkscape:window-y="0"
     inkscape:window-maximized="0"
     inkscape:current-layer="svg2">
    <inkscape:grid
       type="xygrid"
       id="grid4145" />
  </sodipodi:namedview>
  <ellipse
     style="fill:#455a64;fill-opacity:1;stroke:none;stroke-width:2;stroke-linecap:round;stroke-linejoin:round;stroke-miterlimit:4;stroke-dasharray:none;stroke-opacity:1"
     id="path4136"
     cx="24.00005"
     cy="24.000069"
     rx="9.9999447"
     ry="9.9999208" />
  <path
     style="fill:#ffffff;fill-opacity:0.2;stroke:none;stroke-width:2;stroke-linecap:round;stroke-linejoin:round;stroke-miterlimit:4;stroke-dasharray:none;stroke-opacity:1"
     d="m 23.999942,14.00015 a 9.9999446,9.999921 0 0 0 -9.999944,9.999924 9.9999446,9.999921 0 0 0 0.0045,0.1332 9.9999446,9.999921 0 0 1 9.995494,-9.905826 9.9999446,9.999921 0 0 1 9.995506,9.866726 9.9999446,9.999921 0 0 0 0.0044,-0.0941 9.9999446,9.999921 0 0 0 -9.999946,-9.999926 z"
     id="circle4149"
     inkscape:connector-curvature="0" />
  <path
     inkscape:connector-curvature="0"
     id="path4155"
     d="m 23.999942,34 a 9.9999446,9.999921 0 0 1 -9.999944,-9.999926 9.9999446,9.999921 0 0 1 0.0045,-0.1332 9.9999446,9.999921 0 0 0 9.995504,9.905876 9.9999446,9.999921 0 0 0 9.995506,-9.866776 9.9999446,9.999921 0 0 1 0.0044,0.0941 A 9.9999446,9.999921 0 0 1 23.999912,34 Z"
     style="fill:#000000;fill-opacity:0.2;stroke:none;stroke-width:2;stroke-linecap:round;stroke-linejoin:round;stroke-miterlimit:4;stroke-dasharray:none;stroke-opacity:1" />
  <path
     style="fill:#78909c;fill-opacity:1"
     d="M 19.472526,2 C 18.907227,2 18.443805,2.406824 18.353357,2.923828 L 17.57599,8.271484 a 17.000472,17 0 0 0 -4.246211,2.511718 L 8.0522884,8.710938 C 7.5435189,8.523906 6.955994,8.710594 6.6733439,9.183594 L 2.151734,16.80664 c -0.28265,0.473 -0.158132,1.067206 0.2714919,1.408204 l 4.7364595,3.615234 A 17.000472,17 0 0 0 6.9995248,24 17.000472,17 0 0 0 7.1557792,26.171874 l -4.7325533,3.613282 c -0.4296275,0.33 -0.5541447,0.924204 -0.2714919,1.408202 l 4.5216099,7.623048 c 0.2826497,0.473 0.870175,0.670658 1.3789445,0.472656 L 13.323919,37.21875 a 17.000472,17 0 0 0 4.252071,2.507812 l 0.777367,5.34961 C 18.443805,45.593172 18.907227,46 19.472526,46 l 9.045175,0 c 0.565296,0 1.028723,-0.406828 1.119171,-0.923828 l 0.777364,-5.34375 a 17.000472,17 0 0 0 4.252073,-2.513672 l 5.269677,2.070312 c 0.508772,0.18698 1.096294,3.44e-4 1.378944,-0.472656 l 4.523563,-7.623048 c 0.28265,-0.473 0.1581,-1.067202 -0.271492,-1.408202 L 40.838354,26.177734 A 17.000472,17 0 0 0 41.000468,24 a 17.000472,17 0 0 0 -0.1582,-2.181642 l 4.734507,-3.603514 c 0.429628,-0.329998 0.554142,-0.924204 0.271492,-1.408204 L 41.32665,9.183594 C 41.044,8.710594 40.456476,8.512938 39.947704,8.710938 L 34.676073,10.78125 A 17.000472,17 0 0 0 30.424002,8.273438 L 29.646638,2.923828 C 29.544892,2.406824 29.082999,2 28.517701,2 l -9.045175,0 z m 4.527472,14 a 8.000222,8 0 0 1 8.00022,8 8.000222,8 0 0 1 -8.00022,8 8.000222,8 0 0 1 -8.000224,-8 8.000222,8 0 0 1 0.03906,-0.798828 A 8.000222,8 0 0 1 23.999998,16 Z"
     id="path6"
     inkscape:connector-curvature="0" />
  <path
     style="fill:#ffffff;fill-opacity:0.2"
     d="M 19.472656 2 C 18.907357 2 18.443964 2.4068241 18.353516 2.9238281 L 17.576172 8.2714844 A 17.000472 17 0 0 0 13.330078 10.783203 L 8.0527344 8.7109375 C 7.5439649 8.5239055 6.9564782 8.7105938 6.6738281 9.1835938 L 2.1523438 16.806641 C 1.9531008 17.140063 1.9651153 17.530784 2.1347656 17.853516 C 2.1428857 17.838342 2.1434141 17.821584 2.1523438 17.806641 L 6.6738281 10.183594 C 6.9564782 9.7105938 7.5439649 9.5239055 8.0527344 9.7109375 L 13.330078 11.783203 A 17.000472 17 0 0 1 17.576172 9.2714844 L 18.353516 3.9238281 C 18.443964 3.4068241 18.907357 3 19.472656 3 L 28.517578 3 C 29.082876 3 29.544738 3.4068241 29.646484 3.9238281 L 30.423828 9.2734375 A 17.000472 17 0 0 1 34.675781 11.78125 L 39.947266 9.7109375 C 40.456038 9.5129375 41.043522 9.7105938 41.326172 10.183594 L 45.847656 17.806641 C 45.857227 17.82303 45.858546 17.840795 45.867188 17.857422 C 46.035505 17.538313 46.04637 17.146911 45.847656 16.806641 L 41.326172 9.1835938 C 41.043522 8.7105938 40.456038 8.5129375 39.947266 8.7109375 L 34.675781 10.78125 A 17.000472 17 0 0 0 30.423828 8.2734375 L 29.646484 2.9238281 C 29.544738 2.4068241 29.082876 2 28.517578 2 L 19.472656 2 z M 40.927734 22.751953 L 40.841797 22.818359 A 17.000472 17 0 0 1 40.976562 24.607422 A 17.000472 17 0 0 0 41 24 A 17.000472 17 0 0 0 40.927734 22.751953 z M 7.078125 22.767578 A 17.000472 17 0 0 0 7 24 A 17.000472 17 0 0 0 7.0234375 24.396484 A 17.000472 17 0 0 1 7.1601562 22.830078 L 7.078125 22.767578 z M 31.978516 24.423828 A 8.000222 8 0 0 1 24 32 A 8.000222 8 0 0 1 16.021484 24.576172 A 8.000222 8 0 0 0 16 25 A 8.000222 8 0 0 0 24 33 A 8.000222 8 0 0 0 32 25 A 8.000222 8 0 0 0 31.978516 24.423828 z M 7.0703125 26.236328 L 2.4238281 29.785156 C 2.0087484 30.103982 1.8862587 30.668173 2.1328125 31.142578 C 2.2039096 31.007788 2.2962453 30.883154 2.4238281 30.785156 L 7.15625 27.171875 A 17.000472 17 0 0 1 7.0703125 26.236328 z M 40.921875 26.240234 A 17.000472 17 0 0 1 40.837891 27.177734 L 45.566406 30.785156 C 45.693174 30.885782 45.78445 31.011383 45.855469 31.146484 C 46.104372 30.681373 45.982426 30.115383 45.566406 29.785156 L 40.921875 26.240234 z "
     id="path4146" />
  <path
     style="fill:#000000;fill-opacity:0.19607843"
     d="M 24,15 A 8.000222,8 0 0 0 16.039062,22.201172 8.000222,8 0 0 0 16,23 a 8.000222,8 0 0 0 0.02148,0.576172 8.000222,8 0 0 1 0.01758,-0.375 A 8.000222,8 0 0 1 24,16 8.000222,8 0 0 1 31.978516,23.423828 8.000222,8 0 0 0 32,23 8.000222,8 0 0 0 24,15 Z M 2.1347656,16.853516 c -0.2489048,0.465111 -0.1269885,1.031103 0.2890625,1.361328 l 4.6542969,3.552734 a 17.000472,17 0 0 1 0.082031,-0.9375 L 2.4238281,17.214844 C 2.2970506,17.114219 2.2057847,16.988617 2.1347656,16.853516 Z m 43.7324224,0.0039 c -0.0711,0.13479 -0.163433,0.259425 -0.291016,0.357422 l -4.734375,3.603515 a 17.000472,17 0 0 1 0.08594,0.933594 l 4.648438,-3.537109 c 0.41508,-0.318824 0.537567,-0.883015 0.291016,-1.357422 z M 7.0234375,23.396484 A 17.000472,17 0 0 0 7,24 17.000472,17 0 0 0 7.0703125,25.236328 L 7.15625,25.171875 A 17.000472,17 0 0 1 7.0234375,23.396484 Z m 33.9531245,0.210938 a 17.000472,17 0 0 1 -0.138671,1.570312 l 0.08398,0.0625 A 17.000472,17 0 0 0 41,24 17.000472,17 0 0 0 40.976562,23.607422 Z M 2.1328125,30.142578 c -0.1683181,0.319109 -0.1791846,0.710512 0.019531,1.050781 l 4.5214843,7.623047 c 0.2826497,0.473 0.8701368,0.670659 1.3789063,0.472656 L 13.324219,37.21875 a 17.000472,17 0 0 0 4.251953,2.507812 l 0.777344,5.34961 C 18.443964,45.593172 18.907357,46 19.472656,46 l 9.044922,0 c 0.565296,0 1.028693,-0.406828 1.119141,-0.923828 l 0.777343,-5.34375 a 17.000472,17 0 0 0 4.251954,-2.513672 l 5.269531,2.070312 c 0.508772,0.18698 1.096256,3.44e-4 1.378906,-0.472656 l 4.523438,-7.623047 c 0.199243,-0.333422 0.187226,-0.724144 0.01758,-1.046875 -0.0081,0.01517 -0.0086,0.03193 -0.01758,0.04687 l -4.523438,7.623047 c -0.28265,0.473 -0.870134,0.659636 -1.378906,0.472656 L 34.666016,36.21875 a 17.000472,17 0 0 1 -4.251954,2.513672 l -0.777343,5.34375 C 29.546271,44.593172 29.082874,45 28.517578,45 l -9.044922,0 c -0.565299,0 -1.028692,-0.406828 -1.11914,-0.923828 l -0.777344,-5.34961 A 17.000472,17 0 0 1 13.324219,36.21875 L 8.0527344,38.289062 C 7.5439649,38.487065 6.9564778,38.289406 6.6738281,37.816406 L 2.1523438,30.193359 c -0.00957,-0.01639 -0.01089,-0.03415 -0.019531,-0.05078 z"
     id="path4151"
     inkscape:connector-curvature="0" />
  <circle
     r="9"
     cy="24"
     cx="24"
     id="circle4153"
     style="opacity:1;fill:#e0e0e0;fill-opacity:1;stroke:none;stroke-width:1.5;stroke-linecap:round;stroke-linejoin:round;stroke-miterlimit:4;stroke-dasharray:none;stroke-opacity:1" />
  <path
     style="opacity:1;fill:#ffffff;fill-opacity:0.2;stroke:none;stroke-width:1.5;stroke-linecap:round;stroke-linejoin:round;stroke-miterlimit:4;stroke-dasharray:none;stroke-opacity:1"
     d="M 24 15 A 9 9 0 0 0 15 24 A 9 9 0 0 0 15.021484 24.576172 A 9 9 0 0 1 24 16 A 9 9 0 0 1 32.978516 24.423828 A 9 9 0 0 0 33 24 A 9 9 0 0 0 24 15 z "
     id="path4147" />
  <path
     id="path4156"
     d="M 24,33 A 9,9 0 0 1 15,24 9,9 0 0 1 15.021484,23.423828 9,9 0 0 0 24,32 9,9 0 0 0 32.978516,23.576172 9,9 0 0 1 33,24 9,9 0 0 1 24,33 Z"
     style="opacity:1;fill:#000000;fill-opacity:0.2;stroke:none;stroke-width:1.5;stroke-linecap:round;stroke-linejoin:round;stroke-miterlimit:4;stroke-dasharray:none;stroke-opacity:1"
     inkscape:connector-curvature="0" />
  <path
     style="fill:url(#linearGradient4171-1-9);fill-opacity:1;stroke:none;stroke-width:2;stroke-linecap:round;stroke-linejoin:round;stroke-miterlimit:4;stroke-dasharray:none;stroke-opacity:1"
     d="m 19.472656,2 c -0.565299,0 -1.028692,0.406824 -1.11914,0.923828 l -0.777344,5.347656 a 17.000472,17 0 0 0 -4.246094,2.511719 L 8.0527344,8.710937 C 7.5439651,8.523897 6.9564782,8.710594 6.6738281,9.183594 l -4.5214843,7.623047 c -0.2826501,0.473 -0.15814,1.067205 0.2714843,1.408203 l 4.7363281,3.615234 A 17.000472,17 0 0 0 7,24 17.000472,17 0 0 0 7.15625,26.171875 l -4.7324219,3.613281 c -0.4296275,0.33 -0.5541371,0.924205 -0.2714843,1.408203 l 4.5214843,7.623047 c 0.2826497,0.473 0.870137,0.670659 1.3789063,0.472656 L 13.324219,37.21875 a 17.000472,17 0 0 0 4.251953,2.507812 l 0.777344,5.34961 C 18.443964,45.593172 18.907357,46 19.472656,46 l 9.044922,0 c 0.565298,0 1.028693,-0.406828 1.119141,-0.923828 l 0.777343,-5.34375 a 17.000472,17 0 0 0 4.251954,-2.513672 l 5.269531,2.070312 c 0.508772,0.18698 1.096256,3.44e-4 1.378906,-0.472656 l 4.523438,-7.623047 c 0.28265,-0.473 0.158121,-1.067203 -0.271485,-1.408203 L 40.837891,26.177734 A 17.000472,17 0 0 0 41,24 17.000472,17 0 0 0 40.841797,21.818359 l 4.734375,-3.603515 c 0.429628,-0.329998 0.554134,-0.924203 0.271484,-1.408203 L 41.326172,9.183594 c -0.28265,-0.473 -0.870134,-0.670656 -1.378906,-0.472657 L 34.675781,10.78125 A 17.000472,17 0 0 0 30.423828,8.273437 L 29.646484,2.923828 C 29.544738,2.406824 29.082876,2 28.517578,2 l -9.044922,0 z"
     id="circle4163-3-7"
     inkscape:connector-curvature="0" />
</svg>
